final/orchids.svg

<?xml version="1.0" encoding="iso-8859-1"?>
<!-- Generator: Adobe Illustrator 10, SVG Export Plug-In . SVG Version: 3.0.0 Build 76)  -->
<!DOCTYPE svg PUBLIC "-//W3C//DTD SVG 1.0//EN"    "http://www.w3.org/TR/2001/REC-SVG-20010904/DTD/svg10.dtd" [
	<!ENTITY ns_flows "http://ns.adobe.com/Flows/1.0/">
	<!ENTITY ns_svg "http://www.w3.org/2000/svg">
	<!ENTITY ns_xlink "http://www.w3.org/1999/xlink">
]>
<svg  xmlns="&ns_svg;" xmlns:xlink="&ns_xlink;" xmlns:a="http://ns.adobe.com/AdobeSVGViewerExtensions/3.0/"
	 width="635.286" height="575.87" viewBox="0 0 635.286 575.87" style="overflow:visible;enable-background:new 0 0 635.286 575.87"
	 xml:space="preserve">
	<style type="text/css">
	<![CDATA[
		@font-face{font-family:'Times-Roman';src:url(F09D49A2.cef)}
	]]>
	</style>
	<g id="Layer_1">
		<text transform="matrix(1 0 0 1 0 512.9067)"><tspan x="0" y="0" style="font-family:'Times-Roman'; font-size:12;">&quot;Orchids&quot;</tspan><tspan x="0" y="14.5" style="font-family:'Times-Roman'; font-size:12;">Copyright </tspan><tspan x="51.668" y="14.5" style="font-family:'Times-Roman'; font-size:12;">&#xA9;</tspan><tspan x="60.785" y="14.5" style="font-family:'Times-Roman'; font-size:12;"> 2000 Rob Myers http://www.robmyers.org/ .</tspan><tspan x="0" y="29" style="font-family:'Times-Roman'; font-size:12;">This work is licensed under the Creative Commons Attribution-ShareAlike License.</tspan><tspan x="0" y="43.5" style="font-family:'Times-Roman'; font-size:12;">To view a copy of this license, visit http://creativecommons.org/licenses/by-sa/1.0/ </tspan><tspan x="0" y="58" style="font-family:'Times-Roman'; font-size:12;">or send a letter to Creative Commons, 559 Nathan Abbott Way, Stanford, California 94305, USA.</tspan></text>
		<g>
			<g>
				<path style="stroke:#000000;stroke-width:15.984;" d="M207.816,84.695c106.56,71.28,201.241-33.048,147.024,79.561
					c-54.144,112.68-73.512,198.071-143.208,182.592c-69.624-15.552-85.104,23.256-125.784-128.16
					C45.24,67.199-24.456-39.649,76.2,78.863c100.584,118.44,143.208,153.36,154.8,128.16
					c11.592-25.271,32.904-25.271-13.536-60.191c-46.44-34.992-75.456-75.744-69.696-95.185
					C153.6,32.208,190.392,73.031,207.816,84.695z"/>
				<g>
					<path style="stroke:#000000;stroke-width:15.984;" d="M409.057,119.615c-23.904,20.521-25.129-3.888-25.129,42.696
						c0,46.656,9.648,34.992,23.184,38.88c13.537,3.888,135.505-33.048,158.688-38.88c23.257-5.76,58.104-1.944,23.257-19.368
						C554.208,125.447,422.592,107.951,409.057,119.615z"/>
					<path style="stroke:#000000;stroke-width:15.984;" d="M422.592,224.447c-29.016,0-25.128-5.76-32.904,3.889
						c-7.703,9.72-44.496,25.271-29.016,48.6c15.48,23.256-13.536,9.72,65.809,31.032c79.344,21.384,79.344,31.104,125.783,27.216
						c46.44-3.888,5.832-38.88-5.832-44.64C534.84,284.711,424.536,224.447,422.592,224.447z"/>
					<path style="stroke:#000000;stroke-width:15.984;" d="M352.248,320.567c-31.104-7.92-23.904-16.128-46.152,16.272
						c-22.176,32.472-12.312,32.976-15.624,38.088c-3.312,5.184,250.704,184.032,201.383,95.399
						C442.536,381.624,380.328,327.695,352.248,320.567z"/>
				</g>
			</g>
			<g>
				<path style="fill:#B2AFD4;stroke:#7264AD;stroke-width:15.984;" d="M231.648,64.463
					c106.56,71.279,201.312-32.977,147.096,79.632c-54.145,112.607-73.512,198.072-143.208,182.52
					c-69.696-15.479-85.176,23.328-125.784-128.16C69.072,47.039-0.552-59.809,100.032,58.631
					c100.656,118.512,143.28,153.432,154.872,128.16c11.592-25.2,32.904-25.2-13.536-60.192
					c-46.44-34.92-75.528-75.744-69.696-95.112C177.504,12.047,214.224,52.799,231.648,64.463z"/>
				<g>
					<path style="fill:#DAE3B1;stroke:#B3B35F;stroke-width:15.984;" d="M432.96,99.455c-23.903,20.521-25.2-3.888-25.2,42.696
						s9.721,34.992,23.256,38.88c13.536,3.816,135.504-33.048,158.688-38.88c23.256-5.832,58.032-1.943,23.256-19.439
						C578.111,105.287,446.496,87.792,432.96,99.455z"/>
					<path style="fill:#DAE3B1;stroke:#B3B35F;stroke-width:15.984;" d="M446.496,204.287c-29.088,0-25.128-5.832-32.904,3.889
						c-7.775,9.72-44.496,25.271-29.016,48.527c15.48,23.328-13.536,9.721,65.808,31.104
						c79.345,21.384,79.345,31.032,125.784,27.216c46.439-3.888,5.832-38.88-5.832-44.712
						C558.744,264.479,448.439,204.287,446.496,204.287z"/>
					<path style="fill:#DAE3B1;stroke:#B3B35F;stroke-width:15.984;" d="M376.08,300.335c-31.032-7.849-23.832-16.057-46.08,16.344
						c-22.176,32.399-12.384,32.904-15.695,38.088c-3.312,5.184,250.775,184.032,201.455,95.328S404.232,307.535,376.08,300.335z"/>
				</g>
			</g>
		</g>
	</g>
</svg>

<?xml version="1.0" encoding="UTF-8" standalone="no"?>
<!-- Generator: Adobe Illustrator 10, SVG Export Plug-In . SVG Version: 3.0.0 Build 76)  -->
<svg
   xmlns:dc="http://purl.org/dc/elements/1.1/"
   xmlns:cc="http://creativecommons.org/ns#"
   xmlns:rdf="http://www.w3.org/1999/02/22-rdf-syntax-ns#"
   xmlns:svg="http://www.w3.org/2000/svg"
   xmlns="http://www.w3.org/2000/svg"
   xmlns:sodipodi="http://sodipodi.sourceforge.net/DTD/sodipodi-0.dtd"
   xmlns:inkscape="http://www.inkscape.org/namespaces/inkscape"
   width="619.34924"
   height="502.94101"
   viewBox="0 0 635.286 575.87"
   style="overflow:visible"
   xml:space="preserve"
   id="svg2793"
   sodipodi:version="0.32"
   inkscape:version="0.46"
   sodipodi:docname="orchids.svg"
   inkscape:output_extension="org.inkscape.output.svg.inkscape"
   version="1.0"><metadata
   id="metadata2843"><rdf:RDF><cc:Work
       rdf:about=""><dc:format>image/svg+xml</dc:format><dc:type
         rdf:resource="http://purl.org/dc/dcmitype/StillImage" /></cc:Work></rdf:RDF></metadata><defs
   id="defs2841"><inkscape:perspective
   sodipodi:type="inkscape:persp3d"
   inkscape:vp_x="0 : 287.935 : 1"
   inkscape:vp_y="0 : 1000 : 0"
   inkscape:vp_z="635.28601 : 287.935 : 1"
   inkscape:persp3d-origin="317.64301 : 191.95667 : 1"
   id="perspective2845" />
		
		
	</defs><sodipodi:namedview
   inkscape:window-height="670"
   inkscape:window-width="771"
   inkscape:pageshadow="2"
   inkscape:pageopacity="0.0"
   guidetolerance="10.0"
   gridtolerance="10.0"
   objecttolerance="10.0"
   borderopacity="1.0"
   bordercolor="#666666"
   pagecolor="#ffffff"
   id="base"
   showgrid="false"
   inkscape:snap-global="false"
   inkscape:zoom="0.80226441"
   inkscape:cx="317.64301"
   inkscape:cy="287.935"
   inkscape:window-x="121"
   inkscape:window-y="0"
   inkscape:current-layer="svg2793" />
	<style
   type="text/css"
   id="style2795">
	
		@font-face{font-family:'Times-Roman';src:url(F09D49A2.cef)}
	
	</style>
	
<g
   transform="matrix(1.1450051,0,0,1.1450051,-55.614446,1.1019536e-2)"
   style="overflow:visible"
   id="g2814">
			<g
   id="g2816">
				<path
   id="path2818"
   d="M 207.816,84.695 C 314.376,155.975 409.057,51.647 354.84,164.256 C 300.696,276.936 281.328,362.327 211.632,346.848 C 142.008,331.296 126.528,370.104 85.848,218.688 C 45.24,67.199 -24.456,-39.649 76.2,78.863 C 176.784,197.303 219.408,232.223 231,207.023 C 242.592,181.752 263.904,181.752 217.464,146.832 C 171.024,111.84 142.008,71.088 147.768,51.647 C 153.6,32.208 190.392,73.031 207.816,84.695 z"
   style="stroke:#000000;stroke-width:15.98400021" />
				<g
   id="g2820">
					<path
   id="path2822"
   d="M 409.057,119.615 C 385.153,140.136 383.928,115.727 383.928,162.311 C 383.928,208.967 393.576,197.303 407.112,201.191 C 420.649,205.079 542.617,168.143 565.8,162.311 C 589.057,156.551 623.904,160.367 589.057,142.943 C 554.208,125.447 422.592,107.951 409.057,119.615 z"
   style="stroke:#000000;stroke-width:15.98400021" />
					<path
   id="path2824"
   d="M 422.592,224.447 C 393.576,224.447 397.464,218.687 389.688,228.336 C 381.985,238.056 345.192,253.607 360.672,276.936 C 376.152,300.192 347.136,286.656 426.481,307.968 C 505.825,329.352 505.825,339.072 552.264,335.184 C 598.704,331.296 558.096,296.304 546.432,290.544 C 534.84,284.711 424.536,224.447 422.592,224.447 z"
   style="stroke:#000000;stroke-width:15.98400021" />
					<path
   id="path2826"
   d="M 352.248,320.567 C 321.144,312.647 328.344,304.439 306.096,336.839 C 283.92,369.311 293.784,369.815 290.472,374.927 C 287.16,380.111 541.176,558.959 491.855,470.326 C 442.536,381.624 380.328,327.695 352.248,320.567 z"
   style="stroke:#000000;stroke-width:15.98400021" />
				</g>
			</g>
			<g
   id="g2828">
				<path
   id="path2830"
   d="M 231.648,64.463 C 338.208,135.742 432.96,31.486 378.744,144.095 C 324.599,256.702 305.232,342.167 235.536,326.615 C 165.84,311.136 150.36,349.943 109.752,198.455 C 69.072,47.039 -0.552,-59.809 100.032,58.631 C 200.688,177.143 243.312,212.063 254.904,186.791 C 266.496,161.591 287.808,161.591 241.368,126.599 C 194.928,91.679 165.84,50.855 171.672,31.487 C 177.504,12.047 214.224,52.799 231.648,64.463 z"
   style="fill:#b2afd4;stroke:#7264ad;stroke-width:15.98400021" />
				<g
   id="g2832">
					<path
   id="path2834"
   d="M 432.96,99.455 C 409.057,119.976 407.76,95.567 407.76,142.151 C 407.76,188.735 417.481,177.143 431.016,181.031 C 444.552,184.847 566.52,147.983 589.704,142.151 C 612.96,136.319 647.736,140.208 612.96,122.712 C 578.111,105.287 446.496,87.792 432.96,99.455 z"
   style="fill:#dae3b1;stroke:#b3b35f;stroke-width:15.98400021" />
					<path
   id="path2836"
   d="M 446.496,204.287 C 417.408,204.287 421.368,198.455 413.592,208.176 C 405.817,217.896 369.096,233.447 384.576,256.703 C 400.056,280.031 371.04,266.424 450.384,287.807 C 529.729,309.191 529.729,318.839 576.168,315.023 C 622.607,311.135 582,276.143 570.336,270.311 C 558.744,264.479 448.439,204.287 446.496,204.287 z"
   style="fill:#dae3b1;stroke:#b3b35f;stroke-width:15.98400021" />
					<path
   id="path2838"
   d="M 376.08,300.335 C 345.048,292.486 352.248,284.278 330,316.679 C 307.824,349.078 317.616,349.583 314.305,354.767 C 310.993,359.951 565.08,538.799 515.76,450.095 C 466.44,361.391 404.232,307.535 376.08,300.335 z"
   style="fill:#dae3b1;stroke:#b3b35f;stroke-width:15.98400021" />
				</g>
			</g>
		</g></svg>
